!!!!SEGMENT: pl-kk--kk-i-386--001-005_anonim--missa-prima-offertorium-jubilate-deo.krn
!!!cenid: 18xx:4503
!!!COM: Anonim
!!!COM-rismID: pe30004985
!!!CDT:
!!!CNT:
!!!OPR: [Missa prima]
!!!OTL: Offertorium/Jubilate Deo
!!!OMV: 005
!!!PDT:
!!!AGN: Sacred
!!!YEC: Copyright 2022 Narodowy Instytut Fryderyka Chopina (https://polishscores.org)
!!!YEM: License CC-BY-4.0 (https://creativecommons.org/licenses/by/4.0)
!!!SMS-siglum: PL-Kk
!!!SMS-shelfmark: Kk.I.386
!!!SMS-variant:
!!!SMS-altvar:
!!!SMS-shelfwork: 001-005 M
!!!NIFC-rismSourceID: 1001218240
!!!NIFC-rismChildID: 1001218242
!!!NIFC-islandoraID: pl-kk:16060
!!!URL-pdf-islandora: https://repozytorium.nifc.pl/islandora/object/pl-kk%3A16060/datastream/PDF/view
!!!URL-scan: https://polish.musicsources.pl/pl/lokalizacje/galeria/rekopisy/7134/3 @EN{Scan on Polish Music Sources Website} @PL{Skany w portalu Dziedzictwo Muzyki Polskiej w otwartym dostępie}
!!!IIIF:
!!!ONB-nifc: UWAGA: Części Missy Prima: Rorate, Kyrie, Gloria, Graduale, Offertorium, Sanctus, Benedicuts, Agnus, Dona. Zakres skanów: S – 3-6, A – 12-15, T – 22-25, B – 32-25
!!!AIN: 1 alto 1 bass 1 soprn 1 tenor
!!!key:
**kern	**dynam	**text	**kern	**text	**kern	**text	**kern	**text
*part4	*	*part4	*part3	*part3	*part2	*part2	*part1	*part1
*staff4	*	*staff4	*staff3	*staff3	*staff2	*staff2	*staff1	*staff1
*I"Basso.	*	*	*I"Tenore.	*	*I"Alto.	*	*I"Soprano.	*
*I'B	*	*	*I'T	*	*I'A	*	*I'S	*
*Ibass	*	*	*Itenor	*	*Ialto	*	*Isoprn	*
*ICvox	*	*	*ICvox	*	*ICvox	*	*ICvox	*
*clefF4	*	*	*clefC4	*	*clefC3	*	*clefC1	*
*k[b-]	*	*	*k[b-]	*	*k[b-]	*	*k[b-]	*
*F:	*	*	*F:	*	*F:	*	*F:	*
*M4/4	*	*	*M4/4	*	*M4/4	*	*M4/4	*
*met(c)	*	*	*met(c)	*	*met(c)	*	*met(c)	*
!LO:TX:a:t=partia przypominająca	!	!	!LO:TX:a:t=in F.	!	!LO:TX:a:t=Moderato, Cantabile.	!	!LO:TX:a:t=in F.	!
!LO:TX:a:t=in F. Moderato	!	!	!LO:TX:a:t=Moderato Cantabile	!	!LO:TX:t=in F.	!	!LO:TX:a:t=Moderato. Cantabile	!
4r	.	.	4r	.	8a\	Ju-	8cc\	Ju-
.	.	.	.	.	8a\	-bi-	8cc\	-bi-
=1	=1	=1	=1	=1	=1	=1	=1	=1
1r	.	.	4r	.	4.a\	-la-	4.cc\	-la-
.	.	.	8F/	Ju-	.	.	.	.
.	.	.	8F/	-bi-	8a\	-te	8ff\	-te
.	.	.	8F/	-la-	8.f\	De-	8.a\	De-
.	.	.	8F/	-te	.	.	.	.
.	.	.	.	.	16a\	-o	16cc\	-o
.	.	.	4r	.	8g\	om-	8.b-\	om-
.	.	.	.	.	8b-\	-nis	.	.
.	.	.	.	.	.	.	16dd\	-nis
=2	=2	=2	=2	=2	=2	=2	=2	=2
1r	.	.	4r	.	8g#X\L	Ter-	8bn\L	Ter-
.	.	.	.	.	8a\J	.	8cc\J	.
.	.	.	8F/	om-	4a\	-ra	4cc\	-ra
.	.	.	8F/	-nis	.	.	.	.
.	.	.	8F/	Ter-	4r	.	4r	.
.	.	.	8F/	-ra	.	.	.	.
.	.	.	4r	.	4a\	can-	4ff\	can-
!	!	!	!LO:LB:g=original	!	!LO:LB:g=original	!	!	!
=3	=3	=3	=3	=3	=3	=3	=3	=3
1r	.	.	4c\	et	4a\	-ta-	4ff\	-ta-
!	!	!	!	!	!	!	!LO:LB:g=original	!
.	.	.	4r	.	8g\	-te	8ee\	-te,
.	.	.	.	.	8b-\	et	8dd\	et
.	.	.	4r	.	8a\	ex-	8cc\	ex-
.	.	.	.	.	8a\	-ul-	8cc#X\	-ul-
.	.	.	8c\	ex-	8b-\	-ta-	8dd\	-ta-
.	.	.	8c\	-ul-	8g\	-te	8b-X\	-te
=4	=4	=4	=4	=4	=4	=4	=4	=4
2r	.	.	(4F/	-ta-	4g\	il-	4b-\	il-
.	.	.	4c\)	.	4f\	-li,	4a\	-li,
4r	.	.	4F/	-te,	4r	.	4r	.
8A\	f	quo-	8A\	quo-	8a\	quo-	8a\	quo-
8A\	.	-ni-	8A\	-ni-	8a\	-ni-	8a\	-ni-
=5	=5	=5	=5	=5	=5	=5	=5	=5
4D\	.	-am	4A\	-am	4f\	-am	4dd\	-am
8D\	.	bo-	8A\	bo-	8f\	bo-	8dd\	bo-
8D\	.	-nus	8A\	-nus	8f\	-nus	8dd\	-nus
4D\	.	bo-	4A\	est	4f\	bo-	4dd\	bo-
8A\	.	-nus,	8c#X\	bo-	8g\	-nus	8ee\	-nus
8A\	.	est	8c#\	-nus	8g\	est	8ee\	est
=6	=6	=6	=6	=6	=6	=6	=6	=6
8d\	.	Do-	8d\	Do-	8g\	Do-	8ee\	Do-
8D\	.	-mi-	8d\	-mi-	8a\	-mi-	8ff\	-mi-
4D\	.	-nus	4d\	-nus	4a\	-nus,	4ff\	-nus,
!	!	!	!	!	!LO:LB:g=original	!	!LO:LB:g=original	!
4r	.	.	4r	.	4r	.	4r	.
4BBn/	.	et	4d\	et	4g\	et	4ff\	et
!	!	!	!LO:LB:g=original	!	!	!	!	!
=7	=7	=7	=7	=7	=7	=7	=7	=7
4C/	.	mul-	4cn\	mul-	4g\	mul-	4ee\	mul-
4D/	.	-te	4G/	-te	4f\	-te	4bn\	-te
!LO:LB:g=original	!	!	!	!	!	!	!	!
4E\	.	sunt	4G/	sunt	4e\	sunt	4cc\	sunt
4F\	.	mi-	4A\	mi-	4f\	mi-	4dd\	mi-
=8	=8	=8	=8	=8	=8	=8	=8	=8
4G\	.	-se-	4Bn\	-se-	4g\	-se-	4g\	-se-
4G\	.	-ri	4B\	-ri	4g\	-ri	4g\	-ri
4GG/	.	cor-	4c\	cor-	4f#X\	cor-	4a\	cor-
8GG/	.	-di-	8d\	-di-	8fn\	-di-	8bn\	-di-
8GG/	.	-e	8d\	-e	8f\	-e	8b\	-e
=9	=9	=9	=9	=9	=9	=9	=9	=9
.	.	.	.	.	8qf/	.	8qdd/	.
4C/	.	e-	4G/	e-	4e\	e-	4cc\	e-
4C/	.	-ius,	4G/	-ius,	4e\	-ius,	4cc\	-ius
2r	.	.	2r	.	2r	.	4r	.
.	.	.	.	.	.	.	[4cc\	Ju-
=10	=10	=10	=10	=10	=10	=10	=10	=10
2r	.	.	2r	.	2r	.	4.cc\]	.
.	.	.	.	.	.	.	8cc\	-bi-
4r	.	.	4r	.	4r	.	8.dd\L	-la-
.	.	.	.	.	.	.	16cc\Jk	.
4E\	.	Ju-	4c\	Ju-	4g\	Ju-	8.dd\L	-te
.	.	.	.	.	.	.	16cc\Jk	.
!	!	!	!	!	!	!	!LO:LB:g=original	!
=11	=11	=11	=11	=11	=11	=11	=11	=11
4.F\	.	.	4.c\	.	4.a\	.	8cc\L	De-
.	.	.	.	.	.	.	8ff\J	.
.	.	.	.	.	.	.	4cc\	-o,
8F\	.	-bi-	8c\	-bi-	8a\	-bi-	.	.
!	!	!	!	!	!LO:LB:g=original	!	!	!
4F\	.	-la-	4c\	-la-	4a\	-la-	4r	.
4F\	.	-te	4c\	-te	4a\	-te	4cc\	et
!LO:LB:g=original	!	!	!LO:LB:g=original	!	!	!	!	!
=12	=12	=12	=12	=12	=12	=12	=12	=12
4E\	.	De-	4c\	De-	4g\	De-	8.dd\L	o-
.	.	.	.	.	.	.	16cc\Jk	.
4E\	.	-o	4c\	-o	4g\	-o,	8.dd\L	-scul-
.	.	.	.	.	.	.	16cc\Jk	.
4r	.	.	4r	.	4r	.	4cc\	-ta-
4E\	.	et	4c\	et	4g\	Et	4cc\	-te
=13	=13	=13	=13	=13	=13	=13	=13	=13
4.F\	.	e-	4.c\	e-	4.g\	e-	8cc\L	il-
.	.	.	.	.	.	.	8ff\J	.
.	.	.	.	.	.	.	4cc\	-li
8F\	.	-xul-	8c\	-xul-	8g\	-xul-	.	.
4F\	.	-ta-	8c\	-ta-	8g\	-ta-	4r	.
.	.	.	8c\	-te,	8g\	-te	.	.
4F\	.	-te	4r	.	8g\	il-	4cc\	cant-
.	.	.	.	.	8g\	-li,	.	.
=14	=14	=14	=14	=14	=14	=14	=14	=14
*	*	*	*	*	*	*	*2\right	*
4r	.	.	4r	.	4r	.	2ff\	-ta-
4F\	.	can-	4A\	can-	4f\	can-	.	.
4F\	.	-ta-	4B-\	-ta-	4g\	-ta-	4ff\	-te
8F\	.	-te	8c\	-te	8a\	-te	4ff\	can-
8F\	.	can-	8c\	can-	8a\	can-	.	.
=15	=15	=15	=15	=15	=15	=15	=15	=15
4B-\	.	-ta-	4B-\	-ta-	2f\	-ta-	4dd\	-ta-
4A\	.	.	4c\	.	.	.	4ee-X\	-te
!	!	!	!	!	!	!	!LO:LB:g=original	!
4B-\	.	-te	4B-\	-te	4f\	-te	4dd\	il-
4r	.	.	4r	.	4r	.	4dd\	-li
!	!	!	!	!	!LO:LB:g=original	!	!	!
=16	=16	=16	=16	=16	=16	=16	=16	=16
4r	.	.	4r	.	4r	.	2g\	et
4BB-/	.	ser-	4c\	ser-	4e\	ser-	.	.
!	!	!	!LO:LB:g=original	!	!	!	!	!
4AA/	.	-vi-	4c\	-vi-	4f\	-vi-	4a\	.
4GG/	.	-te	4c\	-te	4e\	-te	4b-\	se-
!LO:LB:g=original	!	!	!	!	!	!	!	!
=17	=17	=17	=17	=17	=17	=17	=17	=17
2AA/	.	ser-	4f\	ser-	4f\	ser-	4cc\	-vi-
.	.	.	4e\	.	4g\	.	4cc#X\	-te
4BB-/	.	-vi-	4d\	-vi-	4f\	-vi-	4dd\	ser-
.	.	.	.	.	.	.	16qqee/LL	.
.	.	.	.	.	.	.	16qqdd/	.
.	.	.	.	.	.	.	16qqcc#X/	.
.	.	.	.	.	.	.	16qqdd/JJ	.
4BB-/	.	-te	4d\	-te	4f\	-te	8ee\	-vi-
.	.	.	.	.	.	.	8ff\	-te
=18	=18	=18	=18	=18	=18	=18	=18	=18
*	*	*	*2\right	*	*2\right	*	*	*
1C	.	il-	2c\	il-	2f\	il-	2g\	il-
.	.	.	.	.	.	.	8qdd/	.
.	.	.	2e\	.	2g\	.	2cc\	.
=19	=19	=19	=19	=19	=19	=19	=19	=19
*2\right	*	*	*	*	*	*	*	*
2F\	.	-li,	2c\	-li,	2f\	-li	2a\	-li
2r	.	.	2r	.	2r	.	4r	.
.	.	.	.	.	.	.	4cc\	ca-
=20	=20	=20	=20	=20	=20	=20	=20	=20
4r	.	.	4r	.	4r	.	2ff\	-ta-
4F\	.	can-	4A\	can-	4f\	can-	.	.
!	!	!	!	!	!	!	!LO:LB:g=original	!
4F\	.	-ta-	4B-\	-ta-	4g\	-ta-	4ff\	-te
8F\	.	-te	8c\	-te	8a\	-te	4ff\	can-
8F\	.	can-	8c\	can-	8a\	can-	.	.
!	!	!	!	!	!LO:LB:g=original	!	!	!
=21	=21	=21	=21	=21	=21	=21	=21	=21
4B-\	.	-ta-	4B-\	-ta-	2f\	-ta-	4dd\	-ta-
4A\	.	.	4c\	.	.	.	4ee-X\	-te
4B-\	.	-te,	4B-\	-te,	4f\	-te	4dd\	il-
4r	.	.	4r	.	4r	.	4dd\	-li
!LO:LB:g=original	!	!	!LO:LB:g=original	!	!	!	!	!
=22	=22	=22	=22	=22	=22	=22	=22	=22
4r	.	.	4r	.	4r	.	2g\	et-
4BB-/	.	ser-	4c\	ser-	4e\	ser-	.	.
4AA/	.	-vi-	4c\	-vi-	4f\	-vi-	4a\	.
4GG/	.	-te	4c\	-te	4e\	-te	4b-\	-ser-
=23	=23	=23	=23	=23	=23	=23	=23	=23
2AA/	.	ser-	4f\	ser-	4f\	ser-	4cc\	-vi-
.	.	.	4e\	.	4g\	.	4cc#X\	-te
4BB-/	.	-vi-	4d\	-vi-	4f\	-vi-	4dd\	ser-
.	.	.	.	.	.	.	16qqee/LL	.
.	.	.	.	.	.	.	16qqdd/	.
.	.	.	.	.	.	.	16qqcc#X/	.
.	.	.	.	.	.	.	16qqdd/JJ	.
4BB-/	.	-te	4d\	-te	4f\	-te	8ee\	-vi-
.	.	.	.	.	.	.	8ff\	-te
=24	=24	=24	=24	=24	=24	=24	=24	=24
1C	.	il-	2c\	il-	2f\	il-	2g\	il-
.	.	.	.	.	.	.	8qdd/	.
.	.	.	2B-\	.	2e\	.	2cc\	.
=25	=25	=25	=25	=25	=25	=25	=25	=25
2F\	.	-li.	2A\	-li.	2c/	-li.	2f/	-li.
2r	.	.	2r	.	2r	.	2r	.
==	==	==	==	==	==	==	==	==
*-	*-	*-	*-	*-	*-	*-	*-	*-
!!!system-decoration: [(s1,s2,s3,s4)]
!!!ENC: Anastazja Marusiak
!!!END: 2023-10-31
!!!ENC: Leszek Kubiak
!!!END: 2024-06-23
